img/icon_quick_area.svg

<svg xmlns="http://www.w3.org/2000/svg" width="33.124" height="39.993" viewBox="0 0 33.124 39.993">
  <defs>
    <style>
      .cls-1 {
        fill: #fff;
        stroke-linecap: round;
        stroke-linejoin: round;
        fill-rule: evenodd;
      }

      .cls-2 {
        fill: #adc4f8;
      }

      .cls-3, .cls-4 {
        stroke: none;
      }

      .cls-4 {
        fill: #333;
      }
    </style>
  </defs>
  <g id="icon_quick_area" transform="translate(-664.032 -89.594)">
    <g id="패스_88" data-name="패스 88" class="cls-1" transform="translate(-2.662)">
      <path class="cls-3" d="M 697.1898193359375 128.5870056152344 L 669.3231201171875 128.5870056152344 C 668.4815063476563 128.5870056152344 667.764404296875 128.0804748535156 667.6988525390625 127.4614028930664 L 669.347412109375 120.3003463745117 L 669.3729248046875 120.1896209716797 L 669.3729248046875 120.0759963989258 C 669.3729248046875 119.4152297973633 670.1190185546875 118.8570022583008 671.0020751953125 118.8570022583008 L 695.5111083984375 118.8570022583008 C 696.3934936523438 118.8570022583008 697.138916015625 119.4152297973633 697.138916015625 120.0759963989258 L 697.138916015625 120.1896209716797 L 697.1644287109375 120.3003463745117 L 698.81298828125 127.4614181518555 C 698.7474975585938 128.0804748535156 698.0308227539063 128.5870056152344 697.1898193359375 128.5870056152344 Z"/>
      <path class="cls-4" d="M 697.1898193359375 127.5870132446289 C 697.4778442382813 127.5870132446289 697.6803588867188 127.4804077148438 697.772216796875 127.3980178833008 L 696.1898803710938 120.5246887207031 C 696.1576538085938 120.3846893310547 696.140625 120.2416534423828 696.1390380859375 120.0980453491211 C 696.09130859375 120.0191497802734 695.866455078125 119.8570022583008 695.5111083984375 119.8570022583008 L 671.0020751953125 119.8570022583008 C 670.6463623046875 119.8570022583008 670.4209594726563 120.0193405151367 670.372802734375 120.0984878540039 C 670.3712158203125 120.2419509887695 670.3541259765625 120.3848342895508 670.3219604492188 120.5246887207031 L 668.7396240234375 127.3978881835938 C 668.8316650390625 127.4803237915039 669.0345458984375 127.5870132446289 669.3231201171875 127.5870132446289 L 697.1898193359375 127.5870132446289 M 697.1898193359375 129.5870056152344 L 669.3231201171875 129.5870056152344 C 667.87060546875 129.5870056152344 666.6939697265625 128.593994140625 666.6939697265625 127.3690032958984 L 668.3729248046875 120.0759963989258 C 668.3729248046875 118.8499984741211 669.550537109375 117.8570022583008 671.0020751953125 117.8570022583008 L 695.5111083984375 117.8570022583008 C 696.9625244140625 117.8570022583008 698.138916015625 118.8499984741211 698.138916015625 120.0759963989258 L 699.81787109375 127.3690032958984 C 699.81787109375 128.593994140625 698.641357421875 129.5870056152344 697.1898193359375 129.5870056152344 Z"/>
    </g>
    <g id="패스_89" data-name="패스 89" class="cls-1">
      <path class="cls-3" d="M 680.685546875 123.8282928466797 C 679.9485473632813 123.8282928466797 679.2971801757813 123.5025253295898 678.8985595703125 122.9345245361328 C 678.47265625 122.3277359008789 678.017822265625 121.6973266601563 677.5363159179688 121.0299072265625 C 675.6536254882813 118.4204254150391 673.5197143554688 115.462776184082 671.8317260742188 112.1542129516602 C 669.9013671875 108.3705291748047 668.9630126953125 104.9044647216797 668.9630126953125 101.5579986572266 C 668.9630126953125 95.51243591308594 674.2376098632813 90.59400939941406 680.7210083007813 90.59400939941406 C 687.203857421875 90.59400939941406 692.47802734375 95.51243591308594 692.47802734375 101.5579986572266 C 692.47802734375 104.7226943969727 691.5372924804688 108.1051940917969 689.6019897460938 111.8988037109375 C 687.9078979492188 115.2196273803711 685.76953125 118.2498245239258 683.8828735351563 120.9233093261719 C 683.3893432617188 121.6226959228516 682.9231567382813 122.2832946777344 682.4887084960938 122.9158401489258 C 682.09619140625 123.4871597290039 681.4220581054688 123.8282928466797 680.685546875 123.8282928466797 Z"/>
      <path class="cls-4" d="M 680.7210083007813 91.593994140625 C 674.7890014648438 91.593994140625 669.9630126953125 96.06382751464844 669.9630126953125 101.5579986572266 C 669.9630126953125 104.7427368164063 670.8656616210938 108.0601348876953 672.7225341796875 111.6997680664063 C 674.3756103515625 114.9399337768555 676.485595703125 117.8645095825195 678.3472900390625 120.4448089599609 C 678.8307495117188 121.1149444580078 679.2874145507813 121.7479248046875 679.717041015625 122.3600463867188 C 680.013671875 122.7826690673828 680.4931640625 122.8282928466797 680.685546875 122.8282928466797 C 680.8809814453125 122.8282928466797 681.3676147460938 122.7816390991211 681.6644287109375 122.3496551513672 C 682.1024780273438 121.7118988037109 682.5704345703125 121.0487670898438 683.0658569335938 120.3466949462891 C 684.9331665039063 117.7006072998047 687.0496215820313 114.7014541625977 688.7112426757813 111.4443588256836 C 690.572998046875 107.7948226928711 691.47802734375 104.5609664916992 691.47802734375 101.5579986572266 C 691.47802734375 96.06382751464844 686.6524658203125 91.593994140625 680.7210083007813 91.593994140625 M 680.7210083007813 89.593994140625 C 687.7659912109375 89.593994140625 693.47802734375 94.95099639892578 693.47802734375 101.5579986572266 C 693.47802734375 110.0409927368164 687.0419921875 118.0529937744141 683.31298828125 123.4820098876953 C 682.6968994140625 124.3787231445313 681.691162109375 124.8282928466797 680.685546875 124.8282928466797 C 679.691650390625 124.8282928466797 678.6978759765625 124.3893127441406 678.0800170898438 123.5090026855469 C 674.343994140625 118.1859970092773 667.9630126953125 110.4779968261719 667.9630126953125 101.5579986572266 C 667.9630126953125 94.95099639892578 673.6749877929688 89.593994140625 680.7210083007813 89.593994140625 Z"/>
    </g>
    <circle id="타원_23" data-name="타원 23" class="cls-2" cx="6.064" cy="6.064" r="6.064" transform="translate(674.609 97.46)"/>
  </g>
</svg>

<svg xmlns="http://www.w3.org/2000/svg" width="33.124" height="39.993" viewBox="0 0 33.124 39.993">
    <defs>
        <style>
            .cls-1{fill:#fff;stroke-linecap:round;stroke-linejoin:round;fill-rule:evenodd}.cls-3,.cls-4{stroke:none}.cls-4{fill:#333}
        </style>
    </defs>
    <g id="icon_quick_area" transform="translate(-664.032 -89.594)">
        <g id="패스_88" class="cls-1">
            <path d="M697.19 128.587h-27.867c-.841 0-1.559-.507-1.624-1.126l1.648-7.16.026-.111v-.114c0-.66.746-1.219 1.63-1.219h24.508c.882 0 1.628.558 1.628 1.219v.114l.025.11 1.649 7.161c-.066.62-.782 1.126-1.623 1.126z" class="cls-3" transform="translate(-2.662)"/>
            <path d="M697.19 127.587c.288 0 .49-.107.582-.189l-1.582-6.873c-.032-.14-.05-.283-.051-.427-.048-.079-.273-.241-.628-.241h-24.509c-.356 0-.581.162-.63.241 0 .144-.018.287-.05.427l-1.582 6.873c.092.082.295.189.583.189h27.867m0 2h-27.867c-1.452 0-2.629-.993-2.629-2.218l1.679-7.293c0-1.226 1.178-2.219 2.63-2.219h24.508c1.452 0 2.628.993 2.628 2.219l1.679 7.293c0 1.225-1.177 2.218-2.628 2.218z" class="cls-4" transform="translate(-2.662)"/>
        </g>
        <g id="패스_89" class="cls-1">
            <path d="M680.686 123.828c-.737 0-1.389-.325-1.787-.893-.426-.607-.881-1.238-1.363-1.905-1.882-2.61-4.016-5.567-5.704-8.876-1.93-3.783-2.869-7.25-2.869-10.596 0-6.046 5.275-10.964 11.758-10.964 6.483 0 11.757 4.918 11.757 10.964 0 3.165-.94 6.547-2.876 10.34-1.694 3.322-3.832 6.352-5.72 9.025-.493.7-.959 1.36-1.393 1.993-.393.571-1.067.912-1.803.912z" class="cls-3"/>
            <path d="M680.721 91.594c-5.932 0-10.758 4.47-10.758 9.964 0 3.185.903 6.502 2.76 10.142 1.653 3.24 3.763 6.165 5.624 8.745.484.67.94 1.303 1.37 1.915.297.423.776.468.969.468.195 0 .682-.046.978-.478.438-.638.906-1.301 1.402-2.003 1.867-2.646 3.984-5.646 5.645-8.903 1.862-3.65 2.767-6.883 2.767-9.886 0-5.494-4.826-9.964-10.757-9.964m0-2c7.045 0 12.757 5.357 12.757 11.964 0 8.483-6.436 16.495-10.165 21.924-.616.897-1.622 1.346-2.627 1.346-.994 0-1.988-.439-2.606-1.319-3.736-5.323-10.117-13.031-10.117-21.951 0-6.607 5.712-11.964 12.758-11.964z" class="cls-4"/>
        </g>
        <circle id="타원_23" cx="6.064" cy="6.064" r="6.064" fill="#adc4f8" transform="translate(674.609 97.46)"/>
    </g>
</svg>
